X:295
T:Tropnalo Oro
L:1/8
M:7/8
O:Macedonia
Z:Richard Robinson 
%%TUNEURL: http://www.leeds.ac.uk/music/Info/RRTuneBk/gettune/00000692.html
%%ID:00000692
K:Bb min
A3 B2B2|B3 B4|ABc d2dc|d2c B2BA|\
d3 c2d2|c3 B4|c2B B4|c2B B4::
d3 d4|(d3 d2)cB|c3 c4|(c3 c2)BA|\
B3 B2e2|Be2 B4|B3 B2e2|B3 B4:|
